X: 37657
T: Snowden's
R: polka
M: 2/4
K: Aminor
L:1/8
M:4/4
K:Am
f4 e3d-|dd^ce dd=cA|AAfA e3d-|dd^ce dd=cA|
AAfA e3d-|dd^ce dd=cA|AAfA e3d-|dd^ce dd=cA|
Ace^f g2fg|Ace^f g2fg|Ace^g a2ga|Ace^g a2ga|
Ace^f ggfg|Ace^f ggfg|Ace^g aaga|Ace^g ae=ge||
A,AfA, e2ed-|dd^ce dd=cA|A/A/A fA e2ed-|dd^ce dd=cA|
A,AfA, e2ed-|dd^ce dd=cA|A/A/A fA e2ed-|dd^ce dd=cA|
Ace^f g2fg|Ace^f g2fg|Ace^g a2ga|Ace^g a2ga|
[A,E][CE] z^f gfge|[A,E][CE] z^f gfge|[A,E][CE] z^g agae|[A,E][CE] z^g ae=ge||

